tools/download-figma-icons/icons/solid/electric-meter.svg

<svg width="24" height="24" viewBox="0 0 24 24" fill="none" xmlns="http://www.w3.org/2000/svg">
<path fill-rule="evenodd" clip-rule="evenodd" d="M16.5517 14.6095C16.9725 14.6095 17.3017 14.272 17.3017 13.8596V10.8597C17.3017 10.4472 16.9725 10.1097 16.5517 10.1097H7.55201C7.13952 10.1097 6.80203 10.4472 6.80203 10.8597V13.8596C6.80203 14.272 7.13952 14.6095 7.55201 14.6095H16.5517ZM9.05196 5.57231C8.63947 5.57231 8.30198 5.9098 8.30198 6.32229V8.16723C8.30198 8.58722 8.63947 8.91721 9.05196 8.91721C9.4727 8.91721 9.80194 8.58722 9.80194 8.16723V6.32229C9.80194 5.9098 9.4727 5.57231 9.05196 5.57231ZM12.0519 5.57231C11.6394 5.57231 11.3019 5.9098 11.3019 6.32229V8.16723C11.3019 8.58722 11.6394 8.91721 12.0519 8.91721C12.4726 8.91721 12.8018 8.58722 12.8018 8.16723V6.32229C12.8018 5.9098 12.4726 5.57231 12.0519 5.57231ZM15.0518 5.57231C14.6393 5.57231 14.3018 5.9098 14.3018 6.32229V8.16723C14.3018 8.58722 14.6393 8.91721 15.0518 8.91721C15.4725 8.91721 15.8018 8.58722 15.8018 8.16723V6.32229C15.8018 5.9098 15.4725 5.57231 15.0518 5.57231ZM5.98456 0.0007324H18.0067C19.2442 0.0007324 20.2499 0.998202 20.2499 2.23491V17.7069C20.2499 18.9444 19.2442 19.9419 18.0067 19.9419H15.8018V23.25C15.8018 23.6618 15.4725 24 15.0518 24C14.6393 24 14.3018 23.6618 14.3018 23.25V19.9419H12.8018V23.25C12.8018 23.6618 12.4726 24 12.0519 24C11.6394 24 11.3019 23.6618 11.3019 23.25V19.9419H9.80194V23.25C9.80194 23.6618 9.4727 24 9.05196 24C8.63947 24 8.30198 23.6618 8.30198 23.25V19.9419H5.98456C4.75534 19.9419 3.75037 18.9444 3.75037 17.7069V2.23491C3.75037 0.998202 4.75534 0.0007324 5.98456 0.0007324ZM9.8021 13.1096H8.30215V11.6097H9.8021V13.1096ZM14.302 13.1096H15.8019V11.6097H14.302V13.1096ZM12.7473 13.1096H11.2473V11.6097H12.7473V13.1096Z" fill="black"/>
</svg>

<svg xmlns="http://www.w3.org/2000/svg" width="24" height="24" fill="none" viewBox="0 0 24 24"><path fill="currentColor" fill-rule="evenodd" d="M16.552 14.61c.42 0 .75-.338.75-.75v-3c0-.413-.33-.75-.75-.75h-9a.75.75 0 0 0-.75.75v3c0 .412.338.75.75.75zm-7.5-9.038a.75.75 0 0 0-.75.75v1.845c0 .42.337.75.75.75.42 0 .75-.33.75-.75V6.322c0-.412-.33-.75-.75-.75m3 0a.75.75 0 0 0-.75.75v1.845c0 .42.337.75.75.75.42 0 .75-.33.75-.75V6.322c0-.412-.33-.75-.75-.75m3 0a.75.75 0 0 0-.75.75v1.845c0 .42.337.75.75.75.42 0 .75-.33.75-.75V6.322c0-.412-.33-.75-.75-.75M5.985.001h12.022c1.237 0 2.243.997 2.243 2.234v15.472a2.24 2.24 0 0 1-2.243 2.235h-2.205v3.308c0 .412-.33.75-.75.75a.753.753 0 0 1-.75-.75v-3.308h-1.5v3.308c0 .412-.33.75-.75.75a.753.753 0 0 1-.75-.75v-3.308h-1.5v3.308c0 .412-.33.75-.75.75a.753.753 0 0 1-.75-.75v-3.308H5.985a2.236 2.236 0 0 1-2.235-2.235V2.235A2.235 2.235 0 0 1 5.985 0m3.817 13.11h-1.5v-1.5h1.5zm4.5 0h1.5v-1.5h-1.5zm-1.555 0h-1.5v-1.5h1.5z" clip-rule="evenodd"/></svg>
